public/svg/plusicon.svg

<svg enable-background="new 0 0 29 29" viewBox="0 0 29 29" xmlns="http://www.w3.org/2000/svg"><g fill="#fff"><path d="m14.5 29c-8 0-14.5-6.5-14.5-14.5s6.5-14.5 14.5-14.5 14.5 6.5 14.5 14.5-6.5 14.5-14.5 14.5zm0-27c-6.9 0-12.5 5.6-12.5 12.5s5.6 12.5 12.5 12.5 12.5-5.6 12.5-12.5-5.6-12.5-12.5-12.5z"/><g stroke="#fff" stroke-miterlimit="10"><path d="m21.1 15h-13.2c-.5 0-.9-.2-.9-.5s.4-.5.9-.5h13.1c.5 0 .9.2.9.5s-.3.5-.8.5z"/><path d="m14.5 22c-.3 0-.5-.4-.5-.9v-13.2c0-.5.2-.9.5-.9s.5.4.5.9v13.1c0 .6-.2 1-.5 1z"/></g></g></svg>

<?xml version="1.0" encoding="utf-8"?>
<!-- Generator: Adobe Illustrator 24.0.3, SVG Export Plug-In . SVG Version: 6.00 Build 0)  -->
<svg version="1.1" id="Calque_1" xmlns="http://www.w3.org/2000/svg" xmlns:xlink="http://www.w3.org/1999/xlink" x="0px" y="0px"
	 viewBox="0 0 29 29" style="enable-background:new 0 0 29 29;" xml:space="preserve">
<style type="text/css">
	.st0{fill:#FFFFFF;}
	.st1{fill:#FFFFFF;stroke:#FFFFFF;stroke-miterlimit:10;}
</style>
<title>plus</title>
<g id="Page-1">
	<g id="sign-up-user-desktop" transform="translate(-1388.000000, -119.000000)">
		<g id="plus" transform="translate(1388.000000, 119.000000)">
			<path id="Shape" class="st0" d="M14.5,29C6.5,29,0,22.5,0,14.5S6.5,0,14.5,0S29,6.5,29,14.5S22.5,29,14.5,29z M14.5,2
				C7.6,2,2,7.6,2,14.5S7.6,27,14.5,27S27,21.4,27,14.5S21.4,2,14.5,2z"/>
			<path id="Path" class="st1" d="M21.1,15H7.9C7.4,15,7,14.8,7,14.5S7.4,14,7.9,14h13.1c0.5,0,0.9,0.2,0.9,0.5S21.6,15,21.1,15z"/>
			<path id="Path_1_" class="st1" d="M14.5,22c-0.3,0-0.5-0.4-0.5-0.9V7.9C14,7.4,14.2,7,14.5,7S15,7.4,15,7.9v13.1
				C15,21.6,14.8,22,14.5,22z"/>
		</g>
	</g>
</g>
</svg>
